X:18477
T:Waltz. CJF.142
M:3/8
L:1/16
Q:60
S: C.J.Fox MS, 1829/33, Beverley,E.Yorks.
R:Waltz
O:England
A:East Yorkshire
B:Kidson Coll.Mitchell Lib.M1805
Z:P J Headford 2000
K:D
((3ABc)|d2D2D2|d2D2D2|e4ge|(dcB).A.B.c|d2D2D2|d2D2D2|efgedc|d4:||:!fd|ed
cBAG|
FAdAfd|cAecg"*"e|f4fd|edcBAG|FAdAfd|cAecge|d4:||:!f2|^efefef|
f2.c2.c2|f2.d2.d2|e4f2|^efefef|f2.c2.c2|f2" D. Capo".d2.d2|B4||


